fs/slide_eraser_20_filled.svg

<svg viewBox="0 0 20 20" fill="none" xmlns="http://www.w3.org/2000/svg" height="1em" width="1em">
  <path d="M2 6C2 4.89543 2.89543 4 4 4H16C17.1046 4 18 4.89543 18 6V11.0697L17.5906 10.6602C16.7119 9.78131 15.2872 9.78124 14.4084 10.66L10.659 14.4095C10.2198 14.8487 10.0001 15.4243 10 16H4C2.89543 16 2 15.1046 2 14V6ZM15.1155 11.3663C15.6037 10.8781 16.3953 10.8781 16.8834 11.3664L18.6328 13.1162C19.1209 13.6044 19.1209 14.3958 18.6327 14.8839L16.0572 17.4592L12.5391 13.9428L15.1155 11.3663ZM11.9408 14.5411L11.3661 15.1158C10.878 15.6039 10.878 16.3954 11.3661 16.8835L13.1156 18.6329C13.6038 19.1211 14.3952 19.1211 14.8833 18.633L15.4588 18.0575L11.9408 14.5411Z" fill="#212121"/>
</svg>

<svg viewBox="0 0 20 20" fill="none" xmlns="http://www.w3.org/2000/svg" height="1em" width="1em">
  <path d="M2 6a2 2 0 0 1 2-2h12a2 2 0 0 1 2 2v5.07l-.41-.41a2.25 2.25 0 0 0-3.182 0l-3.749 3.75A2.243 2.243 0 0 0 10 16H4a2 2 0 0 1-2-2V6Zm13.116 5.366a1.25 1.25 0 0 1 1.767 0l1.75 1.75a1.25 1.25 0 0 1 0 1.768l-2.576 2.575-3.518-3.516 2.577-2.577Zm-3.175 3.175-.575.575a1.25 1.25 0 0 0 0 1.768l1.75 1.749a1.25 1.25 0 0 0 1.767 0l.576-.575-3.518-3.517Z" fill="#212121"/>
</svg>
